X: 9222
T: Dan Collins' Father's
R: jig
M: 6/8
K: Dmajor
|:d2A BAB|def a3|aba f2e|d2B BAB|
d2A BAB|def a3|aba f2e|edd d3:|
|:faa faa|afe f3|aba f2e|d2B BAB|
d2A BAB|def a3|aba f2e|edd d3:|

